X:278
T:I Know Whom I Have Believed
%%stretchlast false
M:4/4
L:1/4
K:C clef=C1
"^I"[CEc] [CGce]3/2 [CGce]/ "^IV²"[CAcf]/ "^I"[CGce]/ | "^ii"[CFGd]/ "^I"[CEGc]/ "^IV²"[CFca] "^I"[CEcg] [CEcg] | [CGce] [Cceg]3/2 [Cceg]/ "^IV²"[Ccfa]/ "^I"[Cceg]/ | "^V7¹"[B,Gdf]/ "^I"[CGce]/ "^V"[G,GBd]3 | [G,Gdf] "^I"[CGce]3/2 [CGce]/ "^IV²"[CAcf]/ "^I"[CGce]/ | "^ii"[CFGd]/ "^I"[CEGc]/ "^IV²"[CFca] "^I"[CEcg] [CEcg] | [CGce] "^V"[G,GBg]3/2 [G,DBg]/ [G,DBa]/ [G,DBg]/ | "^V7"[G,DBf]/ [G,FBd]/ "^I"[CEc]3 | "^i"[Cc]/ [Cc]/ "^IV"[F,cac'] [Fcac']3/2 [Fcac']/ | "^V"[Fcgb]/ "^IV"[Fcfa]/ "^IV²"[Ccfa] "^I"[Cceg]3/2 [Cceg]/ | "^IV²"[Ccfa]/ "^I"[Cceg]/ "^iii¹"[G,Beg] "^V7"[G,Bdf]3/2 [G,Bdf]/ | "^iii¹"[G,Beg]/ "^V7"[G,Bdf]/ "^ii7³"[Ccdf] "^I"[CGce]2 | "^i"[Cc] "^IV"[F,cac'] [Fcac']3/2 [Fcac']/ | "^V"[Fcgb]/ "^IV"[Fcfa]/ "^IV²"[Ccfa] "^I"[Cceg]2 | [CGeg]/ [CGeg]/ "^V"[G,Gdb]3/2 "^IV"[G,Gfa]/ "^V7"[G,Gfb]/ "^V"[A,Gfb]/ | "^V7¹"[B,Gfg] "^I"[CGec']3 |]
